svg/fluentui-system-icons/ic_fluent_text_align_center_rotate_90_24_filled.svg

<svg width="24" height="24" viewBox="0 0 24 24" fill="none" xmlns="http://www.w3.org/2000/svg">
<path d="M18 4C18.5523 4 19 4.44772 19 5V19C19 19.5523 18.5523 20 18 20C17.4477 20 17 19.5523 17 19V5C17 4.44772 17.4477 4 18 4ZM6 6C6.55229 6 7 6.44772 7 7V17C7 17.5523 6.55229 18 6 18C5.44771 18 5 17.5523 5 17V7C5 6.44772 5.44771 6 6 6ZM13 3C13 2.44772 12.5523 2 12 2C11.4477 2 11 2.44772 11 3V21C11 21.5523 11.4477 22 12 22C12.5523 22 13 21.5523 13 21V3Z" fill="#212121"/>
</svg>

<svg xmlns="http://www.w3.org/2000/svg" width="24" height="24"><path d="M18 4a1 1 0 0 1 1 1v14a1 1 0 1 1-2 0V5a1 1 0 0 1 1-1ZM6 6a1 1 0 0 1 1 1v10a1 1 0 1 1-2 0V7a1 1 0 0 1 1-1Zm7-3a1 1 0 1 0-2 0v18a1 1 0 1 0 2 0V3Z"/></svg>
